icons/Clipboard_filled.svg

<svg width="24" height="24" viewBox="0 0 24 24" fill="none" xmlns="http://www.w3.org/2000/svg">
<path fill-rule="evenodd" clip-rule="evenodd" d="M15.6465,4.24997h1.3535c1.5188,0 2.75,1.23122 2.75,2.75v12.00003c0,1.5188 -1.2312,2.75 -2.75,2.75h-10c-1.51878,0 -2.75,-1.2312 -2.75,-2.75v-12.00003c0,-1.51878 1.23122,-2.75 2.75,-2.75h0.85352c0.32646,-1.15425 1.3877,-2 2.64648,-2h2.5c1.2588,0 2.32,0.84575 2.6465,2zM10.5,6.24997h2.5c0.6904,0 1.25,-0.55964 1.25,-1.25c0,-0.69036 -0.5596,-1.25 -1.25,-1.25h-2.5c-0.69036,0 -1.25,0.55964 -1.25,1.25c0,0.69036 0.55964,1.25 1.25,1.25z" fill="#002B51"/>
</svg>

<svg width="24" height="24" viewBox="0 0 24 24" fill="none" xmlns="http://www.w3.org/2000/svg">
<path fill-rule="evenodd" clip-rule="evenodd" d="M15.6465 4.24997H17C18.5188 4.24997 19.75 5.48119 19.75 6.99997V19C19.75 20.5188 18.5188 21.75 17 21.75H7C5.48122 21.75 4.25 20.5188 4.25 19V6.99997C4.25 5.48119 5.48122 4.24997 7 4.24997H7.85352C8.17998 3.09572 9.24122 2.24997 10.5 2.24997H13C14.2588 2.24997 15.32 3.09572 15.6465 4.24997ZM9.25 4.99997C9.25 4.30961 9.80964 3.74997 10.5 3.74997H13C13.6904 3.74997 14.25 4.30961 14.25 4.99997C14.25 5.69033 13.6904 6.24997 13 6.24997H10.5C9.80964 6.24997 9.25 5.69033 9.25 4.99997Z" fill="#002B51"/>
</svg>
